images/download_icon.svg

<svg fill="none" height="32" viewBox="0 0 32 32" width="32" xmlns="http://www.w3.org/2000/svg"><g stroke="#000" stroke-width="2"><path d="m4 21v5c0 1.1046.89543 2 2 2h20c1.1046 0 2-.8954 2-2v-5"/><path d="m16 4v18m0 0-6-6.4286m6 6.4286 6-6.4286"/></g></svg>

<svg width="32" height="32" viewBox="0 0 32 32" fill="none" xmlns="http://www.w3.org/2000/svg">
<path d="M4 21V26C4 27.1046 4.89543 28 6 28H26C27.1046 28 28 27.1046 28 26V21" stroke="black" stroke-width="2"/>
<path d="M16 4V22M16 22L10 15.5714M16 22L22 15.5714" stroke="black" stroke-width="2"/>
</svg>
